X:21030
T:CLOVER BLOSSOM (hornpipe), The  
B:DMI.0869
Z:Nordberg/Black
R:hornpipe
%Q:1/4=150
M:C|
L:1/8
K:A
g|aece Acea|fdBG A2Bc|defe dcBA|GBAF E2eg|
aece Acea|fdBG A2Bc|dfed cABG|E2A2A2:|
ed|ceAe ceAe|dfBf dfBf|ceAe ceAc|BAGF E2ed|
ceAe ceAc|dcde fgaf|eaed cABG|E2A2A2:|

%%%

